Numix/16/emotes/face-yawn.svg

<?xml version="1.0" encoding="UTF-8" standalone="no"?>
<svg
   xmlns:dc="http://purl.org/dc/elements/1.1/"
   xmlns:cc="http://creativecommons.org/ns#"
   xmlns:rdf="http://www.w3.org/1999/02/22-rdf-syntax-ns#"
   xmlns:svg="http://www.w3.org/2000/svg"
   xmlns="http://www.w3.org/2000/svg"
   xmlns:sodipodi="http://sodipodi.sourceforge.net/DTD/sodipodi-0.dtd"
   xmlns:inkscape="http://www.inkscape.org/namespaces/inkscape"
   width="16px"
   height="16px"
   viewBox="0 0 12 12"
   version="1.1"
   id="svg3063"
   inkscape:version="0.91 r"
   sodipodi:docname="face-yawn.svg">
  <metadata
     id="metadata3078">
    <rdf:RDF>
      <cc:Work
         rdf:about="">
        <dc:format>image/svg+xml</dc:format>
        <dc:type
           rdf:resource="http://purl.org/dc/dcmitype/StillImage" />
      </cc:Work>
    </rdf:RDF>
  </metadata>
  <defs
     id="defs3076" />
  <sodipodi:namedview
     pagecolor="#ffffff"
     bordercolor="#666666"
     borderopacity="1"
     objecttolerance="10"
     gridtolerance="10"
     guidetolerance="10"
     inkscape:pageopacity="0"
     inkscape:pageshadow="2"
     inkscape:window-width="640"
     inkscape:window-height="480"
     id="namedview3074" />
  <g
     id="surface1">
    <path
       style=" stroke:none;fill-rule:nonzero;fill:rgb(100%,85.098039%,36.078431%);fill-opacity:1;"
       d="M 11.25 6 C 11.25 8.484375 8.898438 10.5 6 10.5 C 3.101562 10.5 0.75 8.484375 0.75 6 C 0.75 3.515625 3.097656 1.5 6 1.5 C 8.902344 1.5 11.25 3.515625 11.25 6 Z M 11.25 6 "
       id="path3066" />
    <path
       style=" stroke:none;fill-rule:nonzero;fill:rgb(38.823529%,38.823529%,38.823529%);fill-opacity:1;"
       d="M 3.25 5.25 L 5 5.25 C 5.136719 5.25 5.25 5.332031 5.25 5.4375 C 5.25 5.542969 5.136719 5.625 5 5.625 L 3.25 5.625 C 3.113281 5.625 3 5.542969 3 5.4375 C 3 5.332031 3.113281 5.25 3.25 5.25 Z M 3.25 5.25 "
       id="path3068" />
    <path
       style=" stroke:none;fill-rule:nonzero;fill:rgb(38.823529%,38.823529%,38.823529%);fill-opacity:1;"
       d="M 7 5.25 L 8.75 5.25 C 8.886719 5.25 9 5.332031 9 5.4375 C 9 5.542969 8.886719 5.625 8.75 5.625 L 7 5.625 C 6.863281 5.625 6.75 5.542969 6.75 5.4375 C 6.75 5.332031 6.863281 5.25 7 5.25 Z M 7 5.25 "
       id="path3070" />
    <path
       style=" stroke:none;fill-rule:nonzero;fill:rgb(38.823529%,38.823529%,38.823529%);fill-opacity:1;"
       d="M 6.5625 8.25 C 6.5625 7.628906 6.3125 7.125 6 7.125 C 5.6875 7.125 5.4375 7.628906 5.4375 8.25 C 5.4375 8.871094 5.6875 9.375 6 9.375 C 6.3125 9.375 6.5625 8.871094 6.5625 8.25 Z M 6.5625 8.25 "
       id="path3072" />
  </g>
</svg>

<svg xmlns="http://www.w3.org/2000/svg" width="16" height="16" viewBox="0 0 12 12">
 <g>
  <path d="m 11.25 6 c 0 2.484 -2.352 4.5 -5.25 4.5 c -2.898 0 -5.25 -2.02 -5.25 -4.5 c 0 -2.484 2.348 -4.5 5.25 -4.5 c 2.902 0 5.25 2.02 5.25 4.5 m 0 0" style="fill:#ffd85b;fill-opacity:1;stroke:none;fill-rule:nonzero"/>
  <path d="m 3.25 5.25 l 1.75 0 c 0.137 0 0.25 0.082 0.25 0.188 c 0 0.105 -0.113 0.188 -0.25 0.188 l -1.75 0 c -0.137 0 -0.25 -0.082 -0.25 -0.188 c 0 -0.105 0.113 -0.188 0.25 -0.188 m 0 0" style="fill:#626262;fill-opacity:1;stroke:none;fill-rule:nonzero"/>
  <path d="m 7 5.25 l 1.75 0 c 0.137 0 0.25 0.082 0.25 0.188 c 0 0.105 -0.113 0.188 -0.25 0.188 l -1.75 0 c -0.137 0 -0.25 -0.082 -0.25 -0.188 c 0 -0.105 0.113 -0.188 0.25 -0.188 m 0 0" style="fill:#626262;fill-opacity:1;stroke:none;fill-rule:nonzero"/>
  <path d="m 6.563 8.25 c 0 -0.621 -0.25 -1.125 -0.563 -1.125 c -0.313 0 -0.563 0.504 -0.563 1.125 c 0 0.621 0.25 1.125 0.563 1.125 c 0.313 0 0.563 -0.504 0.563 -1.125 m 0 0" style="fill:#626262;fill-opacity:1;stroke:none;fill-rule:nonzero"/>
 </g>
</svg>
